X:291
T: ES WOLLTEN DIE VOEGELCHEN HOCHZEIT MACHN
N: E0163D
O: Europa, Mitteleuropa, Deutschland, Berlin
R: erzaehlendes Volks - Lied, Sage, Tier - Maerchen
M: 6/8
L: 1/16
K: G
D2 | G2G2G2G2A2B2 | B4A2A4
d2 | B4B2A4A2 | G6G2z2
D2 | G2G2G2G2A2B2 | B4A2A4
d2 | B4B2A4A2 | G6G2z2
D2 | G2G2z6B2 | B2A2z6
A2 | B4c2d4G2 | A2G2z6
GB | d3dd2d2c2BB | c3cc2c4
dc | B2B2B2d3cB2 | B2A2A2A4
d2 | B3BB2A2G2A2 | G4z6

